X:1
T: Give us another
C:
R:Reel
Q: 232
K:D
M:4/4
L:1/8
|:D2 ((3FED) FA AB|de fd Bd Ad|((3BBB) BA FA dB|AG FD EG FE|
D2 ((3FED) FA AB|de fd Bd Ad|((3BBB) BA FA dB|AG FD ((3EFE) D2|
de fg af df|af df eB ((3BAB)|de fg af df|ab af e2 d2|
de fg af df|af df ed BA|((3BBB) BA FA dB|AG FD GF D2:|
